X:6
T:The 78th Fraser Highlanders Pipe Band
C:Michael Gray
B:William Livingstone Volume 1
H:
O:Kevin Fraser
Z:Kevin Fraser
Q:1/4=90
K:HP
M:9/8
L:1/8
R:March
U: R = ///
U: r = //
U: V = !accent!
V:M gstem=up stem=down name="Melody" sname="Melody" 
V:H gstem=up stem=down name="Harmony" sname="Harmony"
V:C gstem=up stem=down name="C-Harmony" sname="C-Harmony"
V:S gstem=up stem=down clef=none dyn=up name="Snare" sname="Snare"
V:B gstem=up stem=down clef=none dyn=up name="Bass" sname="Bass"
V:T gstem=up stem=down clef=none dyn=up name="Tenor" sname="Tenor"
V:BB gstem=up stem=down name="Brass Bass" sname="Bass" transpose=-1  octave=-2 clef=bass
V:BC gstem=up stem=down name="Brass Chord" sname="ABCD-D" transpose=-1
V:BD gstem=up stem=down name="Brass Chord 2" sname="ABCD-B" transpose=-1
V:P gstem=up stem=down name="Piano" sname="Piano" transpose=0 octave=-1
I:MIDI=program 110
%%MIDI gracedivider 40
% %score {M BC BD BB}
% %MIDI program 109 #bagpipes
%%MIDI vol 100
[V:M] [: B | {g}A2{GdGe}A {GdG}f3 {ag}a2B | {g}B<d{e}A {g}B3 {GdGe}B2d | 
[V:M]     {G}c>B{G}A {ged}e3 {g}A>ef | g>f{g}e {gfg}f3-f2 B | 
[V:M]  |[2 {g}A2{GdGe}A {GdG}f3 {ag}a2B | {g}B<d{e}A {g}B3 {GdGe}B2d | 
[V:M]     {G}c>B{G}A {ged}e3 {g}A>ef | g>f{g}e {Gdc}d3 d2 :]
[V:M] {gf}g | {ag}a>f{g}e {Gdc}d3-d>ef | g>f{g}e {g}B3 {GdGe}B2d | 
[V:M] {g}c2{GdG}e {gef}e3 {g}A>ef | g>f{g}e {gfg}f3-f2 B | 
[V:M] [1{gf}g | {ag}a>f{g}e {Gdc}d3-d>ef | g>f{g}e {g}B3 {GdGe}B2d | 
[V:M] {g}c2{GdG}e {gef}e3 {g}A>ef | g>f{g}e {Gdc}d3 d2 :] 

